X: 10441
Q: "Scherzando"
M: 3/4
L: 1/16
K: G
d2 d2 (Bc) (dB) e4 | A2 A2 (AB) (^cA) d4 |
d2 d2 (de) (dc) B4 | c2 c2 (cd) (cB) A2 c2 |
gaga b2b2 g4 | abab c'2c'2 a4 | bc'bc' d'e'd'c' bc'd'c' | .b4 .a4 "_Da Capo".g4 |]



